X:1
T:The Lovely Banks of Boyne
M:6/8
L:1/8
K:G
 E| G3/2- F/2 E G2 A| B e2 B2 A|G-E FE E2| E3- E2 e| e2 e A2 B| c2 d B2 A|\
 G E2 G2 A| B3- B2 B| e2 e A2 B| c2 d B2 A| G E2 G2 A| B3- B2 E/2E/2|\
 G3/2- F/2 E G2 A| B e2 B2 A|G-E F E2 E| E3- E2||
